X:1
T:Title
%%score { ( 1 3 ) | 2 }
L:1/8
Q:1/4=100
M:4/4
K:A
V:1 treble nm="Grand Piano"
V:3 treble 
V:2 bass 
V:1
 c2 c2 c3 [EB] | [A,FA][A,FA][A,EG][A,DF] [A,CE]2 [CEA]2 | G2 A2 B3 E | [EA][EA]Bc B4 | %4
w: Ira~B.~Wilson * * *||||
 c2 c2 c3 [EB] | [FA][FA][EG][DF] [CE]2 [EA]2 | [DF]2 [Fd]2 [Fc]2 [FB]2 | AGFG [CA]4 | %8
w: ||||
 [Fd]2 [Fd]2 [DF]2 [Fd]2 | dcc=c ^c4 | B2 B2 e2 G2 | [^DA][DA][DG][DF] z2 =D2 | %12
w: ||||
 [CE][CE][DF][DG] [EA][EG][EA]B | c2 [=Ge]2 [Fd]4 | [DF]2 [Fd]2 [Fc]2 [FB]2 | %15
w: |||
[M:8/4] AGFG [CA]4 z8[Q:1/4=97][Q:1/4=94][Q:1/4=91][Q:1/4=88][Q:1/4=84][Q:1/4=81][Q:1/4=78] |] %16
w: |
V:2
 [A,E]2 [A,E]2 [A,E]3 [C,A,] | D,D,D,D, A,,2 A,,2 | [E,B,E]2 [E,A,C]2 [E,G,D]3 [D,G,] | %3
 [C,A,][C,A,][E,G,E][A,E] [E,G,E]4 | [A,E]2 [A,E]2 [A,E]3 [C,A,] | %5
 [D,A,][D,A,][D,A,][D,A,] [A,,A,]2 [C,A,]2 | [D,A,]2 [B,,B,]2 [C,^A,]2 [D,B,]2 | %7
 [E,CE][E,B,D][E,G,D][E,B,D] [A,,A,]4 | [D,A,]2 [D,A,]2 [D,A,]2 [D,A,]2 | %9
 [A,F][A,E][A,E][A,^D] [A,E]4 | [G,B,E]2 [G,B,E]2 [G,B,E]2 [E,B,E]2 | %11
 [B,,B,][B,,B,][B,,B,][B,,A,] [E,G,]4 | [A,,A,][A,,A,][A,,A,][B,,E,] [C,A,][D,B,][C,A,][E,G,E] | %13
 [A,E]2 [C,A,]2 [D,A,]4 | [D,A,]2 [B,,B,]2 [C,^A,]2 [D,B,]2 | %15
[M:8/4] [E,CE][E,B,D][E,G,D][E,B,D] [A,,A,]4 z8 |] %16
V:3
 x8 | x8 | x8 | x8 | x8 | x8 | x8 | x8 | x8 | x8 | x8 | z4 E4 | x8 | x8 | x8 |[M:8/4] x16 |] %16

